X:335
T:Silver Spire
Z: id:dc-reel-312
M:C
L:1/8
K:D Major
FE|D2FD ADFA|dcde fdAF|GABG FADF|GEFD EDCE|!
D2FD ADFA|dcde fdAF|GABG FADF|EDCE D2:|!
zB,|A,B,CD EFGE|FDEF GABc|dcBA Bcde|fdgf e3A|!
defd cdec|dcdB ADFA|GABG FADF|EDCE D2:|!

